; generated by Slic3r 1.2.9 on 2015-07-28 at 14:16:44

; external perimeters extrusion width = 0.50mm
; perimeters extrusion width = 0.72mm
; infill extrusion width = 0.72mm
; solid infill extrusion width = 0.72mm
; top infill extrusion width = 0.72mm

G21 ; set units to millimeters
G90 ; use absolute coordinates
M83 ; use relative distances for extrusion
T1; Select extruder
G21 ; set units to millimeters
G90 ; use absolute coordinates
M83 ; use relative distances for extrusion
G1 E-4.00000 F1800.00000
G1 Z0.300 F3600.000
G1 X84.234 Y84.234 F3600.000
G1 E4.00000 F1800.00000
G1 X84.673 Y83.796 E0.05060 F150.000
G1 X85.117 Y83.387 E0.04931
G1 X86.063 Y82.586 E0.10120
G1 X86.540 Y82.214 E0.04931
G1 X87.549 Y81.494 E0.10120
G1 X88.054 Y81.164 E0.04931
G1 X89.119 Y80.529 E0.10120
G1 X89.651 Y80.242 E0.04931
G1 X90.764 Y79.697 E0.10120
G1 X91.316 Y79.455 E0.04921
G1 X92.473 Y79.004 E0.10131
G1 X93.043 Y78.808 E0.04922
G1 X94.232 Y78.454 E0.10130
G1 X94.818 Y78.306 E0.04931
G1 X96.032 Y78.051 E0.10131
G1 X96.627 Y77.952 E0.04917
G1 X97.857 Y77.798 E0.10124
G1 X98.459 Y77.748 E0.04931
G1 X99.698 Y77.697 E0.10120
G1 X100.302 Y77.697 E0.04931
G1 X101.541 Y77.748 E0.10120
G1 X102.143 Y77.798 E0.04931 F150.000
G1 X103.373 Y77.952 E0.10120
G1 X103.969 Y78.051 E0.04931
G1 X105.182 Y78.306 E0.10120
G1 X105.768 Y78.454 E0.04931
G1 X106.956 Y78.808 E0.10120
G1 X107.527 Y79.003 E0.04926
G1 X108.682 Y79.454 E0.10126
G1 X109.236 Y79.697 E0.04931
G1 X110.349 Y80.242 E0.10120
G1 X110.880 Y80.529 E0.04930
G1 X111.946 Y81.164 E0.10122
G1 X112.451 Y81.494 E0.04931
G1 X113.460 Y82.214 E0.10121
G1 X113.937 Y82.585 E0.04929
G1 X114.883 Y83.387 E0.10122
G1 X115.327 Y83.796 E0.04931
G1 X116.204 Y84.673 E0.10120
G1 X116.613 Y85.117 E0.04931
G1 X117.414 Y86.063 E0.10120
G1 X117.786 Y86.540 E0.04931
G1 X118.506 Y87.549 E0.10120
G1 X118.836 Y88.054 E0.04931
G1 X119.471 Y89.119 E0.10120
G1 X119.758 Y89.651 E0.04931
G1 X120.303 Y90.764 E0.10120
G1 X120.546 Y91.318 E0.04931
G1 X120.996 Y92.473 E0.10120
G1 X121.192 Y93.044 E0.04932
G1 X121.546 Y94.232 E0.10120
G1 X121.694 Y94.818 E0.04931
G1 X121.949 Y96.031 E0.10120
G1 X122.048 Y96.627 E0.04931
G1 X122.202 Y97.857 E0.10120
G1 X122.252 Y98.459 E0.04931
G1 X122.303 Y99.698 E0.10120
G1 X122.303 Y100.302 E0.04931
G1 X122.252 Y101.541 E0.10120
G1 X122.202 Y102.143 E0.04931
G1 X122.048 Y103.373 E0.10120
G1 X121.949 Y103.969 E0.04931
G1 X121.694 Y105.182 E0.10121
G1 X121.546 Y105.767 E0.04928
G1 X121.192 Y106.956 E0.10123
G1 X120.996 Y107.527 E0.04932
G1 X120.546 Y108.682 E0.10120
G1 X120.303 Y109.235 E0.04926
G1 X119.758 Y110.349 E0.10125
G1 X119.471 Y110.881 E0.04931
G1 X118.836 Y111.946 E0.10120
G1 X118.506 Y112.451 E0.04931
G1 X117.786 Y113.460 E0.10120
G1 X117.414 Y113.937 E0.04931
G1 X116.613 Y114.883 E0.10120
G1 X116.204 Y115.327 E0.04931
G1 X115.327 Y116.204 E0.10120
G1 X114.883 Y116.613 E0.04931
G1 X113.937 Y117.414 E0.10120
G1 X113.461 Y117.785 E0.04926
G1 X112.451 Y118.506 E0.10126
G1 X111.946 Y118.836 E0.04925
G1 X110.881 Y119.471 E0.10127
G1 X110.350 Y119.758 E0.04927
G1 X109.236 Y120.303 E0.10125
G1 X108.683 Y120.545 E0.04928
G1 X107.527 Y120.996 E0.10124
G1 X106.956 Y121.192 E0.04932
G1 X105.768 Y121.546 E0.10120
G1 X105.183 Y121.694 E0.04923
G1 X103.969 Y121.949 E0.10129
G1 X103.373 Y122.048 E0.04931
G1 X102.142 Y122.202 E0.10127
G1 X101.541 Y122.252 E0.04924
G1 X100.302 Y122.303 E0.10120
G1 X99.698 Y122.303 E0.04930
G1 X98.459 Y122.252 E0.10121
G1 X97.857 Y122.202 E0.04931
G1 X96.627 Y122.048 E0.10120
G1 X96.032 Y121.949 E0.04923
G1 X94.818 Y121.694 E0.10129
G1 X94.234 Y121.547 E0.04918
G1 X93.044 Y121.192 E0.10133
G1 X92.473 Y120.996 E0.04931
G1 X91.318 Y120.546 E0.10120
G1 X90.764 Y120.303 E0.04931
G1 X89.651 Y119.758 E0.10120
G1 X89.119 Y119.471 E0.04931
G1 X88.054 Y118.836 E0.10120
G1 X87.549 Y118.506 E0.04931
G1 X86.540 Y117.785 E0.10122
G1 X86.063 Y117.414 E0.04930
G1 X85.122 Y116.617 E0.10070
G1 X84.673 Y116.204 E0.04982
G1 X83.796 Y115.327 E0.10120
G1 X83.387 Y114.883 E0.04931
G1 X82.585 Y113.937 E0.10122
G1 X82.215 Y113.461 E0.04924
G1 X81.494 Y112.451 E0.10126
G1 X81.164 Y111.946 E0.04931
G1 X80.529 Y110.881 E0.10120
G1 X80.242 Y110.350 E0.04927
G1 X79.697 Y109.236 E0.10125
G1 X79.455 Y108.684 E0.04917
G1 X79.004 Y107.527 E0.10135
G1 X78.808 Y106.956 E0.04931
G1 X78.454 Y105.768 E0.10120
G1 X78.306 Y105.183 E0.04923
G1 X78.051 Y103.969 E0.10129
G1 X77.952 Y103.374 E0.04921
G1 X77.798 Y102.143 E0.10130
G1 X77.749 Y101.542 E0.04923
G1 X77.697 Y100.302 E0.10128
G1 X77.697 Y99.698 E0.04931
G1 X77.748 Y98.459 E0.10120
G1 X77.798 Y97.857 E0.04931
G1 X77.952 Y96.627 E0.10124
G1 X78.051 Y96.032 E0.04917
G1 X78.306 Y94.818 E0.10131
G1 X78.454 Y94.232 E0.04931
G1 X78.808 Y93.044 E0.10123
G1 X79.003 Y92.474 E0.04920
G1 X79.454 Y91.318 E0.10130
G1 X79.697 Y90.765 E0.04923
G1 X80.242 Y89.651 E0.10129
G1 X80.529 Y89.119 E0.04931
G1 X81.164 Y88.054 E0.10120
G1 X81.494 Y87.549 E0.04931
G1 X82.214 Y86.540 E0.10120
G1 X82.586 Y86.063 E0.04931
G1 X83.387 Y85.117 E0.10120
G1 X84.181 Y84.287 E0.09377
G1 X84.644 Y84.750 F3600.000
G1 X85.135 Y84.259 E0.05672 F150.000
G1 X85.540 Y83.886 E0.04490
G1 X86.486 Y83.085 E0.10120
G1 X86.920 Y82.747 E0.04490
G1 X87.929 Y82.027 E0.10120
G1 X88.389 Y81.726 E0.04490
G1 X89.454 Y81.091 E0.10120
G1 X89.938 Y80.830 E0.04490
G1 X91.052 Y80.285 E0.10120
G1 X91.554 Y80.065 E0.04480
G1 X92.711 Y79.613 E0.10130
G1 X93.230 Y79.435 E0.04481
G1 X94.419 Y79.081 E0.10129
G1 X94.952 Y78.946 E0.04490
G1 X96.167 Y78.691 E0.10130
G1 X96.708 Y78.601 E0.04477
G1 X97.938 Y78.448 E0.10124
G1 X98.486 Y78.402 E0.04490
G1 X99.725 Y78.351 E0.10120
G1 X100.275 Y78.351 E0.04490
G1 X101.514 Y78.402 E0.10120
G1 X102.062 Y78.448 E0.04490 F150.000
G1 X103.292 Y78.601 E0.10120
G1 X103.835 Y78.692 E0.04490
G1 X105.048 Y78.946 E0.10120
G1 X105.581 Y79.081 E0.04490
G1 X106.769 Y79.435 E0.10120
G1 X107.289 Y79.613 E0.04485
G1 X108.444 Y80.064 E0.10126
G1 X108.948 Y80.285 E0.04490
G1 X110.062 Y80.830 E0.10120
G1 X110.545 Y81.091 E0.04488
G1 X111.611 Y81.726 E0.10122
G1 X112.071 Y82.027 E0.04489
G1 X113.080 Y82.747 E0.10121
G1 X113.514 Y83.085 E0.04488
G1 X114.460 Y83.886 E0.10122
G1 X114.865 Y84.259 E0.04490
G1 X115.741 Y85.135 E0.10120
G1 X116.114 Y85.540 E0.04490
G1 X116.915 Y86.486 E0.10120
G1 X117.253 Y86.920 E0.04490
G1 X117.973 Y87.929 E0.10120
G1 X118.274 Y88.389 E0.04490
G1 X118.909 Y89.454 E0.10120
G1 X119.170 Y89.938 E0.04490
G1 X119.715 Y91.052 E0.10120
G1 X119.936 Y91.556 E0.04490
G1 X120.387 Y92.711 E0.10120
G1 X120.565 Y93.231 E0.04490
G1 X120.919 Y94.419 E0.10120
G1 X121.054 Y94.952 E0.04490
G1 X121.308 Y96.165 E0.10120
G1 X121.399 Y96.708 E0.04490
G1 X121.552 Y97.938 E0.10120
G1 X121.598 Y98.486 E0.04490
G1 X121.649 Y99.725 E0.10120
G1 X121.649 Y100.275 E0.04490
G1 X121.598 Y101.514 E0.10120
G1 X121.552 Y102.062 E0.04490
G1 X121.399 Y103.292 E0.10120
G1 X121.308 Y103.835 E0.04490
G1 X121.054 Y105.048 E0.10121
G1 X120.919 Y105.581 E0.04486
G1 X120.565 Y106.769 E0.10123
G1 X120.387 Y107.289 E0.04490
G1 X119.936 Y108.444 E0.10120
G1 X119.715 Y108.948 E0.04485
G1 X119.170 Y110.062 E0.10125
G1 X118.909 Y110.546 E0.04490
G1 X118.274 Y111.611 E0.10120
G1 X117.973 Y112.071 E0.04490
G1 X117.253 Y113.080 E0.10120
G1 X116.915 Y113.514 E0.04490
G1 X116.114 Y114.460 E0.10120
G1 X115.741 Y114.865 E0.04490
G1 X114.865 Y115.741 E0.10120
G1 X114.460 Y116.114 E0.04490
G1 X113.514 Y116.915 E0.10120
G1 X113.080 Y117.253 E0.04485
G1 X112.071 Y117.973 E0.10125
G1 X111.611 Y118.274 E0.04484
G1 X110.546 Y118.909 E0.10127
G1 X110.062 Y119.170 E0.04486
G1 X108.948 Y119.715 E0.10124
G1 X108.445 Y119.936 E0.04487
G1 X107.289 Y120.387 E0.10123
G1 X106.769 Y120.565 E0.04490
G1 X105.581 Y120.919 E0.10120
G1 X105.049 Y121.054 E0.04482
G1 X103.835 Y121.308 E0.10128
G1 X103.292 Y121.399 E0.04490
G1 X102.061 Y121.552 E0.10127
G1 X101.514 Y121.598 E0.04484
G1 X100.275 Y121.649 E0.10120
G1 X99.725 Y121.649 E0.04489
G1 X98.486 Y121.598 E0.10121
G1 X97.938 Y121.552 E0.04490
G1 X96.708 Y121.399 E0.10120
G1 X96.166 Y121.308 E0.04482
G1 X94.952 Y121.054 E0.10128
G1 X94.420 Y120.919 E0.04478
G1 X93.231 Y120.565 E0.10132
G1 X92.711 Y120.387 E0.04490
G1 X91.556 Y119.936 E0.10120
G1 X91.052 Y119.715 E0.04490
G1 X89.938 Y119.170 E0.10120
G1 X89.454 Y118.909 E0.04490
G1 X88.389 Y118.274 E0.10120
G1 X87.929 Y117.973 E0.04490
G1 X86.920 Y117.253 E0.10122
G1 X86.486 Y116.915 E0.04488
G1 X85.545 Y116.118 E0.10070
G1 X85.135 Y115.741 E0.04540
G1 X84.259 Y114.865 E0.10120
G1 X83.886 Y114.460 E0.04490
G1 X83.085 Y113.514 E0.10122
G1 X82.747 Y113.080 E0.04483
G1 X82.027 Y112.071 E0.10125
G1 X81.726 Y111.611 E0.04490
G1 X81.091 Y110.546 E0.10120
G1 X80.830 Y110.062 E0.04486
G1 X80.285 Y108.948 E0.10124
G1 X80.065 Y108.446 E0.04477
G1 X79.613 Y107.289 E0.10133
G1 X79.435 Y106.769 E0.04490
G1 X79.081 Y105.581 E0.10120
G1 X78.946 Y105.049 E0.04482
G1 X78.692 Y103.835 E0.10128
G1 X78.601 Y103.293 E0.04481
G1 X78.448 Y102.062 E0.10129
G1 X78.402 Y101.515 E0.04483
G1 X78.351 Y100.275 E0.10128
G1 X78.351 Y99.725 E0.04490
G1 X78.402 Y98.486 E0.10120
G1 X78.448 Y97.938 E0.04490
G1 X78.601 Y96.708 E0.10124
G1 X78.691 Y96.167 E0.04477
G1 X78.946 Y94.952 E0.10130
G1 X79.081 Y94.419 E0.04490
G1 X79.435 Y93.230 E0.10123
G1 X79.613 Y92.711 E0.04479
G1 X80.064 Y91.556 E0.10129
G1 X80.285 Y91.053 E0.04482
G1 X80.830 Y89.938 E0.10128
G1 X81.091 Y89.454 E0.04490
G1 X81.726 Y88.389 E0.10120
G1 X82.027 Y87.929 E0.04490
G1 X82.747 Y86.920 E0.10120
G1 X83.085 Y86.486 E0.04490
G1 X83.886 Y85.540 E0.10120
G1 X84.591 Y84.803 E0.08324
G1 E-4.00000 F1800.00000
G1 X90.626 Y108.845 F3600.000
G1 E4.00000 F1800.00000
G1 X89.825 Y107.920 E0.09991 F150.000
G1 X89.205 Y107.052 E0.08700
G1 X88.660 Y106.137 E0.08700
G1 X88.192 Y105.180 E0.08700
G1 X87.804 Y104.187 E0.08700
G1 X87.501 Y103.166 E0.08696
G1 X87.281 Y102.117 E0.08750
G1 X87.150 Y101.065 E0.08653
G1 X87.106 Y100.000 E0.08700
G1 X87.150 Y98.935 E0.08700
G1 X87.282 Y97.878 E0.08700
G1 X87.500 Y96.835 E0.08696
G1 X87.807 Y95.808 E0.08750
G1 X88.192 Y94.820 E0.08653
G1 X88.660 Y93.863 E0.08700
G1 X89.205 Y92.948 E0.08700
G1 X89.825 Y92.080 E0.08700
G1 X90.513 Y91.267 E0.08700
G1 X91.267 Y90.513 E0.08700
G1 X92.080 Y89.825 E0.08700
G1 X92.948 Y89.205 E0.08700
G1 X93.863 Y88.660 E0.08700
G1 X94.820 Y88.192 E0.08700
G1 X95.813 Y87.804 E0.08700
G1 X96.835 Y87.500 E0.08700
G1 X97.878 Y87.282 E0.08700
G1 X98.935 Y87.150 E0.08700
G1 X100.000 Y87.106 E0.08700
G1 X101.059 Y87.150 E0.08653
G1 X102.123 Y87.282 E0.08750 F150.000
G1 X103.165 Y87.500 E0.08696
G1 X104.187 Y87.804 E0.08700
G1 X105.180 Y88.192 E0.08700
G1 X106.137 Y88.660 E0.08700
G1 X107.052 Y89.205 E0.08700
G1 X107.920 Y89.825 E0.08700
G1 X108.733 Y90.513 E0.08700
G1 X109.487 Y91.267 E0.08700
G1 X110.175 Y92.080 E0.08700
G1 X110.795 Y92.948 E0.08700
G1 X111.340 Y93.863 E0.08700
G1 X111.808 Y94.820 E0.08700
G1 X112.196 Y95.813 E0.08700
G1 X112.500 Y96.835 E0.08700
G1 X112.718 Y97.878 E0.08700
G1 X112.850 Y98.935 E0.08700
G1 X112.894 Y100.000 E0.08700
G1 X112.850 Y101.065 E0.08700
G1 X112.718 Y102.122 E0.08696
G1 X112.498 Y103.171 E0.08750
G1 X112.196 Y104.187 E0.08653
G1 X111.808 Y105.180 E0.08700
G1 X111.340 Y106.137 E0.08700
G1 X110.795 Y107.052 E0.08700
G1 X110.175 Y107.920 E0.08700
G1 X109.487 Y108.733 E0.08700
G1 X108.733 Y109.487 E0.08700
G1 X107.920 Y110.175 E0.08700
G1 X107.052 Y110.795 E0.08700
G1 X106.137 Y111.340 E0.08700
G1 X105.180 Y111.808 E0.08700
G1 X104.187 Y112.196 E0.08700
G1 X103.165 Y112.500 E0.08700
G1 X102.122 Y112.718 E0.08700
G1 X101.071 Y112.849 E0.08653
G1 X100.000 Y112.894 E0.08750
G1 X98.935 Y112.850 E0.08696
G1 X97.878 Y112.718 E0.08696
G1 X96.829 Y112.498 E0.08750
G1 X95.813 Y112.196 E0.08653
G1 X94.820 Y111.808 E0.08700
G1 X93.863 Y111.340 E0.08700
G1 X92.948 Y110.795 E0.08700
G1 X92.080 Y110.175 E0.08700
G1 X91.267 Y109.487 E0.08700
G1 X90.679 Y108.898 E0.06792
G1 X90.216 Y109.361 F3600.000
G1 X90.032 Y109.177 E0.02129 F150.000
G1 X89.308 Y108.322 E0.09142
G1 X88.657 Y107.411 E0.09142
G1 X88.084 Y106.449 E0.09142
G1 X87.592 Y105.443 E0.09142
G1 X87.185 Y104.399 E0.09142
G1 X86.865 Y103.326 E0.09139
G1 X86.635 Y102.224 E0.09192
G1 X86.497 Y101.119 E0.09093
G1 X86.451 Y100.000 E0.09142
G1 X86.497 Y98.881 E0.09142
G1 X86.636 Y97.770 E0.09142
G1 X86.865 Y96.674 E0.09139
G1 X87.187 Y95.595 E0.09192
G1 X87.592 Y94.557 E0.09093
G1 X88.084 Y93.551 E0.09142
G1 X88.657 Y92.589 E0.09142
G1 X89.308 Y91.678 E0.09142
G1 X90.032 Y90.823 E0.09142
G1 X90.823 Y90.032 E0.09142
G1 X91.678 Y89.308 E0.09142
G1 X92.589 Y88.657 E0.09142
G1 X93.551 Y88.084 E0.09142
G1 X94.557 Y87.592 E0.09142
G1 X95.601 Y87.185 E0.09142
G1 X96.674 Y86.865 E0.09142
G1 X97.770 Y86.636 E0.09142
G1 X98.881 Y86.497 E0.09142
G1 X100.000 Y86.451 E0.09142
G1 X101.113 Y86.497 E0.09093
G1 X102.230 Y86.636 E0.09192 F150.000
G1 X103.326 Y86.865 E0.09139
G1 X104.399 Y87.185 E0.09142
G1 X105.443 Y87.592 E0.09142
G1 X106.449 Y88.084 E0.09142
G1 X107.411 Y88.657 E0.09142
G1 X108.322 Y89.308 E0.09142
G1 X109.177 Y90.032 E0.09142
G1 X109.968 Y90.823 E0.09142
G1 X110.692 Y91.678 E0.09142
G1 X111.343 Y92.589 E0.09142
G1 X111.916 Y93.551 E0.09142
G1 X112.408 Y94.557 E0.09142
G1 X112.815 Y95.601 E0.09142
G1 X113.135 Y96.674 E0.09142
G1 X113.364 Y97.770 E0.09142
G1 X113.503 Y98.881 E0.09142
G1 X113.549 Y100.000 E0.09142
G1 X113.503 Y101.119 E0.09142
G1 X113.364 Y102.230 E0.09139
G1 X113.133 Y103.332 E0.09192
G1 X112.815 Y104.399 E0.09093
G1 X112.408 Y105.443 E0.09142
G1 X111.916 Y106.449 E0.09142
G1 X111.343 Y107.411 E0.09142
G1 X110.692 Y108.322 E0.09142
G1 X109.968 Y109.177 E0.09142
G1 X109.177 Y109.968 E0.09142
G1 X108.322 Y110.692 E0.09142
G1 X107.411 Y111.343 E0.09142
G1 X106.449 Y111.916 E0.09142
G1 X105.443 Y112.408 E0.09142
G1 X104.399 Y112.815 E0.09142
G1 X103.326 Y113.135 E0.09142
G1 X102.230 Y113.364 E0.09142
G1 X101.125 Y113.502 E0.09093
G1 X100.000 Y113.549 E0.09192
G1 X98.881 Y113.503 E0.09139
G1 X97.770 Y113.364 E0.09139
G1 X96.668 Y113.133 E0.09192
G1 X95.601 Y112.815 E0.09093
G1 X94.557 Y112.408 E0.09142
G1 X93.551 Y111.916 E0.09142
G1 X92.589 Y111.343 E0.09142
G1 X91.678 Y110.692 E0.09142
G1 X90.823 Y109.968 E0.09142
G1 X90.269 Y109.414 E0.06401
G1 X89.806 Y109.877 F3600.000
G1 X89.550 Y109.620 E0.02962 F150.000
G1 X88.791 Y108.724 E0.09584
G1 X88.109 Y107.769 E0.09584
G1 X87.508 Y106.760 E0.09584
G1 X86.992 Y105.706 E0.09584
G1 X86.565 Y104.612 E0.09584
G1 X86.230 Y103.487 E0.09582
G1 X85.989 Y102.332 E0.09634
G1 X85.844 Y101.173 E0.09534
G1 X85.796 Y100.000 E0.09584
G1 X85.844 Y98.827 E0.09584
G1 X85.989 Y97.662 E0.09584
G1 X86.230 Y96.513 E0.09582
G1 X86.568 Y95.382 E0.09634
G1 X86.992 Y94.294 E0.09534
G1 X87.508 Y93.240 E0.09584
G1 X88.109 Y92.231 E0.09584
G1 X88.791 Y91.276 E0.09584
G1 X89.550 Y90.380 E0.09584
G1 X90.380 Y89.550 E0.09584
G1 X91.276 Y88.791 E0.09584
G1 X92.231 Y88.109 E0.09584
G1 X93.240 Y87.508 E0.09584
G1 X94.294 Y86.992 E0.09584
G1 X95.388 Y86.565 E0.09584
G1 X96.513 Y86.230 E0.09584
G1 X97.662 Y85.989 E0.09584
G1 X98.827 Y85.844 E0.09584
G1 X100.000 Y85.796 E0.09584
G1 X101.167 Y85.844 E0.09534
G1 X102.338 Y85.989 E0.09634 F150.000
G1 X103.487 Y86.230 E0.09582
G1 X104.612 Y86.565 E0.09584
G1 X105.706 Y86.992 E0.09584
G1 X106.760 Y87.508 E0.09584
G1 X107.769 Y88.109 E0.09584
G1 X108.724 Y88.791 E0.09584
G1 X109.620 Y89.550 E0.09584
G1 X110.450 Y90.380 E0.09584
G1 X111.209 Y91.276 E0.09584
G1 X111.891 Y92.231 E0.09584
G1 X112.492 Y93.240 E0.09584
G1 X113.008 Y94.294 E0.09584
G1 X113.435 Y95.388 E0.09584
G1 X113.770 Y96.513 E0.09584
G1 X114.011 Y97.662 E0.09584
G1 X114.156 Y98.827 E0.09584
G1 X114.204 Y100.000 E0.09584
G1 X114.156 Y101.173 E0.09584
G1 X114.011 Y102.338 E0.09582
G1 X113.768 Y103.493 E0.09634
G1 X113.435 Y104.612 E0.09534
G1 X113.008 Y105.706 E0.09584
G1 X112.492 Y106.760 E0.09584
G1 X111.891 Y107.769 E0.09584
G1 X111.209 Y108.724 E0.09583
G1 X110.450 Y109.620 E0.09584
G1 X109.620 Y110.450 E0.09584
G1 X108.724 Y111.209 E0.09584
G1 X107.769 Y111.891 E0.09583
G1 X106.760 Y112.492 E0.09584
G1 X105.706 Y113.008 E0.09584
G1 X104.612 Y113.435 E0.09584
G1 X103.487 Y113.770 E0.09584
G1 X102.338 Y114.011 E0.09584
