; generated by Slic3r 1.2.9 on 2015-07-28 at 16:55:52

; external perimeters extrusion width = 0.50mm
; perimeters extrusion width = 0.72mm
; infill extrusion width = 0.72mm
; solid infill extrusion width = 0.72mm
; top infill extrusion width = 0.72mm

G21 ; set units to millimeters
G90 ; use absolute coordinates
M83 ; use relative distances for extrusion
T1; Select extruder
G21 ; set units to millimeters
G90 ; use absolute coordinates
M83 ; use relative distances for extrusion
G1 E-4.00000 F1800.00000
G1 Z0.300 F3600.000
G1 X87.917 Y87.608 F3600.000
G1 E4.00000 F1800.00000
G1 X88.282 Y87.266 E0.04085 F150.000
G1 X89.168 Y86.500 E0.09564
G1 X90.508 Y85.526 E0.13516
G1 X91.511 Y84.921 E0.09565
G1 X91.940 Y84.683 E0.04010
G1 X92.897 Y84.220 E0.08679
G1 X93.508 Y83.959 E0.05418
G1 X94.342 Y83.646 E0.07270
G1 X94.965 Y83.444 E0.05354
G1 X95.824 Y83.207 E0.07270
G1 X96.471 Y83.059 E0.05418
G1 X97.347 Y82.900 E0.07270
G1 X98.005 Y82.811 E0.05418
G1 X99.164 Y82.711 E0.09500
G1 X100.828 Y82.711 E0.13582
G1 X101.995 Y82.811 E0.09564 F150.000
G1 X102.483 Y82.871 E0.04015
G1 X103.529 Y83.059 E0.08674
G1 X104.116 Y83.191 E0.04907
G1 X105.035 Y83.444 E0.07781
G1 X105.658 Y83.646 E0.05354
G1 X106.550 Y83.981 E0.07774
G1 X107.103 Y84.220 E0.04915
G1 X108.059 Y84.683 E0.08675
G1 X108.489 Y84.921 E0.04013
G1 X109.486 Y85.522 E0.09505
G1 X110.831 Y86.499 E0.13567
G1 X111.718 Y87.266 E0.09573
G1 X112.083 Y87.608 E0.04085
G1 X112.813 Y88.369 E0.08603
G1 X113.249 Y88.869 E0.05418
G1 X113.805 Y89.565 E0.07270
G1 X114.190 Y90.096 E0.05354
G1 X114.715 Y90.891 E0.07778
G1 X115.021 Y91.408 E0.04910
G1 X115.523 Y92.344 E0.08667
G1 X115.731 Y92.791 E0.04022
G1 X116.187 Y93.869 E0.09556
G1 X116.699 Y95.445 E0.13531
G1 X116.965 Y96.586 E0.09559
G1 X117.058 Y97.070 E0.04024
G1 X117.202 Y98.121 E0.08664
G1 X117.259 Y98.721 E0.04915
G1 X117.302 Y99.672 E0.07774
G1 X117.302 Y100.328 E0.05354
G1 X117.259 Y101.279 E0.07774
G1 X117.202 Y101.879 E0.04915
G1 X117.058 Y102.930 E0.08664
G1 X116.965 Y103.414 E0.04024
G1 X116.699 Y104.555 E0.09559
G1 X116.187 Y106.131 E0.13531
G1 X115.731 Y107.209 E0.09556
G1 X115.523 Y107.655 E0.04019
G1 X115.021 Y108.592 E0.08671
G1 X114.715 Y109.109 E0.04912
G1 X114.190 Y109.904 E0.07776
G1 X113.805 Y110.435 E0.05354
G1 X113.249 Y111.131 E0.07270
G1 X112.813 Y111.631 E0.05418
G1 X112.083 Y112.392 E0.08609
G1 X111.718 Y112.734 E0.04080
G1 X110.832 Y113.501 E0.09567
G1 X109.485 Y114.479 E0.13590
G1 X108.489 Y115.079 E0.09488
G1 X108.058 Y115.317 E0.04020
G1 X107.103 Y115.780 E0.08668
G1 X106.542 Y116.022 E0.04981
G1 X105.658 Y116.354 E0.07707
G1 X105.035 Y116.556 E0.05354
G1 X104.117 Y116.809 E0.07774
G1 X103.529 Y116.941 E0.04914
G1 X102.484 Y117.129 E0.08667
G1 X101.995 Y117.189 E0.04021
G1 X100.829 Y117.289 E0.09556
G1 X99.171 Y117.289 E0.13533
G1 X98.005 Y117.189 E0.09556
G1 X97.516 Y117.129 E0.04016
G1 X96.471 Y116.941 E0.08672
G1 X95.884 Y116.810 E0.04906
G1 X94.965 Y116.556 E0.07783
G1 X94.342 Y116.354 E0.05354
G1 X93.450 Y116.019 E0.07771
G1 X92.897 Y115.780 E0.04917
G1 X91.942 Y115.317 E0.08668
G1 X91.511 Y115.079 E0.04020
G1 X90.515 Y114.479 E0.09492
G1 X89.472 Y113.733 E0.10466
G1 X89.161 Y113.495 E0.03194
G1 X88.282 Y112.734 E0.09494
G1 X87.918 Y112.393 E0.04075
G1 X87.187 Y111.631 E0.08614
G1 X86.790 Y111.180 E0.04906
G1 X86.195 Y110.435 E0.07782
G1 X85.810 Y109.904 E0.05354
G1 X85.319 Y109.161 E0.07270
G1 X84.979 Y108.592 E0.05418
G1 X84.481 Y107.662 E0.08610
G1 X84.269 Y107.209 E0.04079
G1 X83.816 Y106.138 E0.09492
G1 X83.685 Y105.769 E0.03197
G1 X83.410 Y104.922 E0.07270
G1 X83.234 Y104.282 E0.05418
G1 X82.942 Y102.930 E0.11292
G1 X82.798 Y101.879 E0.08666
G1 X82.741 Y101.279 E0.04914
G1 X82.698 Y100.328 E0.07774
G1 X82.698 Y99.672 E0.05354
G1 X82.741 Y98.721 E0.07774
G1 X82.798 Y98.121 E0.04914
G1 X82.942 Y97.070 E0.08666
G1 X83.035 Y96.586 E0.04023
G1 X83.302 Y95.444 E0.09571
G1 X83.813 Y93.869 E0.13518
G1 X84.269 Y92.791 E0.09556
G1 X84.477 Y92.345 E0.04018
G1 X84.979 Y91.408 E0.08670
G1 X85.285 Y90.891 E0.04908
G1 X85.810 Y90.096 E0.07781
G1 X86.195 Y89.565 E0.05354
G1 X86.791 Y88.819 E0.07789
G1 X87.187 Y88.369 E0.04899
G1 X87.864 Y87.662 E0.07991
G1 X88.332 Y88.119 F3600.000
G1 X88.713 Y87.759 E0.04277 F150.000
G1 X89.580 Y87.008 E0.09365
G1 X90.864 Y86.075 E0.12957
G1 X92.238 Y85.266 E0.13014
G1 X93.181 Y84.810 E0.08558
G1 X93.691 Y84.590 E0.04531
G1 X94.572 Y84.259 E0.07678
G1 X95.139 Y84.075 E0.04874
G1 X96.053 Y83.823 E0.07733
G1 X96.588 Y83.703 E0.04476
G1 X97.464 Y83.544 E0.07270
G1 X98.063 Y83.463 E0.04938
G1 X99.198 Y83.365 E0.09300
G1 X100.794 Y83.365 E0.13022
G1 X102.381 Y83.518 E0.13018 F150.000
G1 X103.412 Y83.703 E0.08554
G1 X103.946 Y83.823 E0.04467
G1 X104.861 Y84.075 E0.07741
G1 X105.428 Y84.259 E0.04874
G1 X106.315 Y84.592 E0.07734
G1 X106.819 Y84.810 E0.04475
G1 X107.762 Y85.266 E0.08555
G1 X109.130 Y86.071 E0.12957
G1 X110.419 Y87.008 E0.13009
G1 X111.287 Y87.759 E0.09372
G1 X111.620 Y88.071 E0.03725
G1 X112.340 Y88.821 E0.08484
G1 X112.738 Y89.277 E0.04938
G1 X113.293 Y89.973 E0.07270
G1 X113.644 Y90.456 E0.04874
G1 X114.166 Y91.247 E0.07739
G1 X114.445 Y91.719 E0.04470
G1 X114.940 Y92.642 E0.08548
G1 X115.576 Y94.104 E0.13017
G1 X116.067 Y95.615 E0.12970
G1 X116.412 Y97.172 E0.13021
G1 X116.554 Y98.209 E0.08545
G1 X116.605 Y98.755 E0.04475
G1 X116.648 Y99.701 E0.07734
G1 X116.648 Y100.299 E0.04874
G1 X116.605 Y101.245 E0.07734
G1 X116.554 Y101.791 E0.04475
G1 X116.412 Y102.828 E0.08545
G1 X116.067 Y104.385 E0.13021
G1 X115.576 Y105.896 E0.12970
G1 X114.940 Y107.358 E0.13014
G1 X114.445 Y108.281 E0.08551
G1 X114.166 Y108.753 E0.04472
G1 X113.644 Y109.544 E0.07737
G1 X113.293 Y110.027 E0.04874
G1 X112.738 Y110.723 E0.07270
G1 X112.340 Y111.179 E0.04938
G1 X111.620 Y111.929 E0.08489
G1 X111.287 Y112.241 E0.03720
G1 X110.420 Y112.992 E0.09367
G1 X109.128 Y113.930 E0.13030
G1 X107.761 Y114.734 E0.12948
G1 X106.819 Y115.190 E0.08549
G1 X106.315 Y115.408 E0.04477
G1 X105.428 Y115.741 E0.07732
G1 X104.861 Y115.925 E0.04874
G1 X103.947 Y116.177 E0.07735
G1 X103.412 Y116.297 E0.04474
G1 X102.382 Y116.482 E0.08548
G1 X100.795 Y116.635 E0.13016
G1 X99.205 Y116.635 E0.12972
G1 X97.619 Y116.482 E0.13012
G1 X96.588 Y116.297 E0.08552
G1 X96.054 Y116.177 E0.04466
G1 X95.139 Y115.925 E0.07743
G1 X94.572 Y115.741 E0.04874
G1 X93.685 Y115.408 E0.07732
G1 X93.181 Y115.190 E0.04477
G1 X92.379 Y114.804 E0.07270
G1 X91.846 Y114.517 E0.04938
G1 X91.082 Y114.061 E0.07270
G1 X90.577 Y113.727 E0.04939
G1 X89.573 Y112.986 E0.10183
G1 X88.386 Y111.935 E0.12945
G1 X87.660 Y111.179 E0.08558
G1 X87.299 Y110.768 E0.04467
G1 X86.707 Y110.027 E0.07742
G1 X86.356 Y109.544 E0.04874
G1 X85.834 Y108.753 E0.07735
G1 X85.555 Y108.281 E0.04474
G1 X85.060 Y107.358 E0.08554
G1 X84.424 Y105.896 E0.13011
G1 X83.934 Y104.387 E0.12958
G1 X83.588 Y102.828 E0.13032
G1 X83.446 Y101.791 E0.08546
G1 X83.395 Y101.245 E0.04474
G1 X83.352 Y100.299 E0.07735
G1 X83.352 Y99.701 E0.04874
G1 X83.395 Y98.755 E0.07735
G1 X83.446 Y98.209 E0.04474
G1 X83.588 Y97.172 E0.08546
G1 X83.932 Y95.621 E0.12968
G1 X84.424 Y94.104 E0.13022
G1 X84.870 Y93.048 E0.09357
G1 X85.064 Y92.635 E0.03723
G1 X85.555 Y91.719 E0.08486
G1 X85.834 Y91.248 E0.04468
G1 X86.356 Y90.456 E0.07741
G1 X86.707 Y89.973 E0.04874
G1 X87.299 Y89.231 E0.07748
G1 X87.660 Y88.821 E0.04460
G1 X88.280 Y88.173 E0.07319
G1 E-4.00000 F1800.00000
G1 X96.884 Y107.252 F3600.000
G1 E4.00000 F1800.00000
G1 X96.258 Y106.950 E0.05676 F150.000
G1 X95.649 Y106.586 E0.05793
G1 X95.081 Y106.173 E0.05733
G1 X94.546 Y105.707 E0.05793
G1 X94.056 Y105.194 E0.05789
G1 X93.614 Y104.640 E0.05789
G1 X93.223 Y104.048 E0.05789
G1 X92.887 Y103.423 E0.05789
G1 X92.609 Y102.771 E0.05793
G1 X92.392 Y102.104 E0.05728
G1 X92.232 Y101.405 E0.05849
G1 X92.138 Y100.702 E0.05793
G1 X92.106 Y100.000 E0.05733
G1 X92.138 Y99.299 E0.05732
G1 X92.234 Y98.588 E0.05852
G1 X92.392 Y97.897 E0.05787
G1 X92.609 Y97.229 E0.05733
G1 X92.887 Y96.577 E0.05793
G1 X93.223 Y95.952 E0.05789
G1 X93.614 Y95.360 E0.05789
G1 X94.056 Y94.806 E0.05789
G1 X94.546 Y94.293 E0.05789
G1 X95.081 Y93.827 E0.05793
G1 X95.649 Y93.414 E0.05733
G1 X96.258 Y93.050 E0.05793
G1 X96.897 Y92.742 E0.05789
G1 X97.561 Y92.493 E0.05789
G1 X98.244 Y92.304 E0.05789
G1 X98.942 Y92.177 E0.05789
G1 X99.648 Y92.114 E0.05789
G1 X100.358 Y92.114 E0.05794
G1 X101.057 Y92.177 E0.05727 F150.000
G1 X101.762 Y92.306 E0.05855
G1 X102.439 Y92.493 E0.05732
G1 X103.097 Y92.739 E0.05733
G1 X103.736 Y93.047 E0.05793
G1 X104.352 Y93.414 E0.05849
G1 X104.919 Y93.827 E0.05728
G1 X105.454 Y94.293 E0.05793
G1 X105.944 Y94.806 E0.05789
G1 X106.386 Y95.360 E0.05789
G1 X106.777 Y95.952 E0.05789
G1 X107.113 Y96.577 E0.05789
G1 X107.391 Y97.229 E0.05793
G1 X107.608 Y97.896 E0.05728
G1 X107.768 Y98.595 E0.05849
G1 X107.862 Y99.298 E0.05793
G1 X107.894 Y100.000 E0.05733
G1 X107.862 Y100.701 E0.05732
G1 X107.766 Y101.412 E0.05852
G1 X107.608 Y102.103 E0.05787
G1 X107.391 Y102.771 E0.05733
G1 X107.113 Y103.423 E0.05793
G1 X106.777 Y104.048 E0.05789
G1 X106.386 Y104.640 E0.05789
G1 X105.944 Y105.194 E0.05789
G1 X105.454 Y105.707 E0.05789
G1 X104.919 Y106.173 E0.05793
G1 X104.351 Y106.586 E0.05733
G1 X103.743 Y106.950 E0.05787
G1 X103.097 Y107.261 E0.05852
G1 X102.439 Y107.507 E0.05732
G1 X101.762 Y107.694 E0.05733
G1 X101.064 Y107.822 E0.05793
G1 X100.351 Y107.886 E0.05849
G1 X99.649 Y107.886 E0.05728
G1 X98.942 Y107.823 E0.05793
G1 X98.244 Y107.696 E0.05789
G1 X97.561 Y107.507 E0.05789
G1 X96.954 Y107.280 E0.05290
G1 X96.724 Y107.892 F3600.000
G1 X95.947 Y107.527 E0.07006 F150.000
G1 X95.288 Y107.133 E0.06272
G1 X94.672 Y106.686 E0.06211
G1 X94.093 Y106.180 E0.06272
G1 X93.563 Y105.625 E0.06270
G1 X93.084 Y105.025 E0.06270
G1 X92.661 Y104.384 E0.06270
G1 X92.297 Y103.708 E0.06270
G1 X91.995 Y103.001 E0.06272
G1 X91.760 Y102.278 E0.06207
G1 X91.588 Y101.522 E0.06331
G1 X91.485 Y100.760 E0.06272
G1 X91.451 Y100.000 E0.06211
G1 X91.485 Y99.240 E0.06210
G1 X91.589 Y98.471 E0.06333
G1 X91.760 Y97.723 E0.06268
G1 X91.995 Y96.999 E0.06211
G1 X92.297 Y96.292 E0.06272
G1 X92.661 Y95.616 E0.06270
G1 X93.084 Y94.975 E0.06270
G1 X93.563 Y94.375 E0.06270
G1 X94.093 Y93.820 E0.06270
G1 X94.672 Y93.314 E0.06272
G1 X95.288 Y92.867 E0.06211
G1 X95.947 Y92.473 E0.06272
G1 X96.639 Y92.139 E0.06270
G1 X97.358 Y91.869 E0.06270
G1 X98.099 Y91.665 E0.06270
G1 X98.854 Y91.528 E0.06270
G1 X99.619 Y91.460 E0.06270
G1 X100.388 Y91.460 E0.06273
G1 X101.145 Y91.528 E0.06207 F150.000
G1 X101.908 Y91.667 E0.06335
G1 X102.642 Y91.869 E0.06210
G1 X103.354 Y92.137 E0.06211
G1 X104.047 Y92.470 E0.06272
G1 X104.713 Y92.867 E0.06331
G1 X105.328 Y93.314 E0.06207
G1 X105.907 Y93.820 E0.06272
G1 X106.437 Y94.375 E0.06270
G1 X106.916 Y94.975 E0.06270
G1 X107.339 Y95.616 E0.06270
G1 X107.703 Y96.292 E0.06270
G1 X108.005 Y96.999 E0.06272
G1 X108.240 Y97.722 E0.06207
G1 X108.412 Y98.478 E0.06331
G1 X108.515 Y99.240 E0.06273
G1 X108.549 Y100.000 E0.06211
G1 X108.515 Y100.760 E0.06210
G1 X108.411 Y101.529 E0.06333
G1 X108.240 Y102.277 E0.06268
G1 X108.005 Y103.001 E0.06211
G1 X107.703 Y103.708 E0.06272
G1 X107.339 Y104.384 E0.06270
G1 X106.916 Y105.025 E0.06270
G1 X106.437 Y105.625 E0.06270
G1 X105.907 Y106.180 E0.06270
G1 X105.328 Y106.686 E0.06272
G1 X104.712 Y107.133 E0.06211
G1 X104.053 Y107.527 E0.06268
G1 X103.354 Y107.863 E0.06333
G1 X102.642 Y108.131 E0.06210
G1 X101.908 Y108.333 E0.06211
G1 X101.152 Y108.471 E0.06273
G1 X100.380 Y108.540 E0.06331
G1 X99.620 Y108.540 E0.06207
G1 X98.854 Y108.472 E0.06272
G1 X98.099 Y108.335 E0.06270
G1 X97.358 Y108.131 E0.06270
G1 X96.794 Y107.919 E0.04918
G1 X96.564 Y108.532 F3600.000
G1 X96.382 Y108.463 E0.01592 F150.000
G1 X95.637 Y108.104 E0.06750
G1 X94.927 Y107.680 E0.06752
G1 X94.264 Y107.198 E0.06689
G1 X93.641 Y106.654 E0.06752
G1 X93.069 Y106.057 E0.06750
G1 X92.554 Y105.410 E0.06750
G1 X92.098 Y104.720 E0.06750
G1 X91.707 Y103.992 E0.06750
G1 X91.382 Y103.231 E0.06752
G1 X91.129 Y102.452 E0.06687
G1 X90.943 Y101.638 E0.06813
G1 X90.833 Y100.819 E0.06752
G1 X90.796 Y100.000 E0.06689
G1 X90.833 Y99.181 E0.06689
G1 X90.944 Y98.354 E0.06814
G1 X91.128 Y97.548 E0.06749
G1 X91.382 Y96.769 E0.06689
G1 X91.707 Y96.008 E0.06752
G1 X92.098 Y95.280 E0.06750
G1 X92.554 Y94.590 E0.06750
G1 X93.069 Y93.943 E0.06750
G1 X93.641 Y93.346 E0.06750
G1 X94.264 Y92.802 E0.06752
G1 X94.927 Y92.320 E0.06689
G1 X95.637 Y91.896 E0.06752
G1 X96.382 Y91.537 E0.06750
G1 X97.156 Y91.246 E0.06750
G1 X97.953 Y91.026 E0.06750
G1 X98.767 Y90.879 E0.06750
G1 X99.590 Y90.805 E0.06750
G1 X100.417 Y90.805 E0.06752
G1 X101.233 Y90.879 E0.06687 F150.000
G1 X102.054 Y91.028 E0.06815
G1 X102.844 Y91.246 E0.06689
G1 X103.611 Y91.534 E0.06689
G1 X104.357 Y91.893 E0.06752
G1 X105.073 Y92.320 E0.06813
G1 X105.736 Y92.802 E0.06687
G1 X106.359 Y93.346 E0.06752
G1 X106.931 Y93.943 E0.06750
G1 X107.446 Y94.590 E0.06750
G1 X107.902 Y95.280 E0.06750
G1 X108.293 Y96.008 E0.06750
G1 X108.618 Y96.769 E0.06752
G1 X108.871 Y97.548 E0.06687
G1 X109.057 Y98.362 E0.06813
G1 X109.167 Y99.181 E0.06752
G1 X109.204 Y100.000 E0.06689
G1 X109.167 Y100.819 E0.06689
G1 X109.056 Y101.646 E0.06814
G1 X108.872 Y102.452 E0.06749
G1 X108.618 Y103.231 E0.06689
G1 X108.293 Y103.992 E0.06752
G1 X107.902 Y104.720 E0.06750
G1 X107.446 Y105.410 E0.06750
G1 X106.931 Y106.057 E0.06750
G1 X106.359 Y106.654 E0.06750
G1 X105.736 Y107.198 E0.06752
G1 X105.073 Y107.680 E0.06689
G1 X104.364 Y108.104 E0.06749
G1 X103.611 Y108.466 E0.06814
G1 X102.844 Y108.754 E0.06689
G1 X102.054 Y108.972 E0.06689
G1 X101.241 Y109.120 E0.06752
G1 X100.409 Y109.195 E0.06813
G1 X99.590 Y109.195 E0.06687
G1 X98.767 Y109.121 E0.06752
G1 X97.953 Y108.974 E0.06750
G1 X97.156 Y108.754 E0.06750
G1 X96.634 Y108.558 E0.04546
G1 X96.443 Y109.068 F3600.000
G1 X96.167 Y108.965 E0.01600 F105.000
G1 X95.378 Y108.585 E0.04759
G1 X94.626 Y108.135 E0.04759
G1 X93.924 Y107.625 E0.04717
G1 X93.264 Y107.049 E0.04759
G1 X92.658 Y106.416 E0.04759
G1 X92.112 Y105.731 E0.04759
G1 X91.630 Y105.000 E0.04759
G1 X91.215 Y104.228 E0.04759
G1 X90.871 Y103.423 E0.04759
G1 X90.603 Y102.597 E0.04717
G1 X90.406 Y101.735 E0.04801
G1 X90.289 Y100.867 E0.04759
G1 X90.250 Y100.000 E0.04717
G1 X90.289 Y99.133 E0.04717
G1 X90.407 Y98.257 E0.04802
G1 X90.603 Y97.403 E0.04759
G1 X90.871 Y96.577 E0.04717
G1 X91.215 Y95.772 E0.04759
G1 X91.630 Y95.000 E0.04759
G1 X92.112 Y94.269 E0.04759
G1 X92.658 Y93.584 E0.04759
G1 X93.264 Y92.951 E0.04759
G1 X93.924 Y92.375 E0.04759
G1 X94.626 Y91.865 E0.04717
G1 X95.378 Y91.415 E0.04759
G1 X96.167 Y91.035 E0.04759
G1 X96.987 Y90.727 E0.04759
G1 X97.832 Y90.494 E0.04759
G1 X98.693 Y90.338 E0.04759
G1 X99.566 Y90.260 E0.04759
G1 X100.442 Y90.260 E0.04760
G1 X101.306 Y90.338 E0.04717 F105.000
G1 X102.176 Y90.496 E0.04802
G1 X103.013 Y90.727 E0.04717
G1 X103.826 Y91.033 E0.04717
G1 X104.615 Y91.412 E0.04759
G1 X105.374 Y91.865 E0.04801
G1 X106.076 Y92.375 E0.04717
G1 X106.736 Y92.951 E0.04759
G1 X107.342 Y93.584 E0.04759
G1 X107.888 Y94.269 E0.04759
G1 X108.370 Y95.000 E0.04759
G1 X108.785 Y95.772 E0.04759
G1 X109.129 Y96.577 E0.04759
G1 X109.397 Y97.403 E0.04717
G1 X109.594 Y98.265 E0.04801
G1 X109.711 Y99.133 E0.04759
G1 X109.750 Y100.000 E0.04717
G1 X109.711 Y100.867 E0.04717
G1 X109.593 Y101.743 E0.04802
G1 X109.397 Y102.597 E0.04759
G1 X109.129 Y103.423 E0.04717
G1 X108.785 Y104.228 E0.04759
G1 X108.370 Y105.000 E0.04759
G1 X107.888 Y105.731 E0.04759
G1 X107.342 Y106.416 E0.04759
G1 X106.736 Y107.049 E0.04759
G1 X106.076 Y107.625 E0.04759
G1 X105.374 Y108.135 E0.04717
G1 X104.622 Y108.584 E0.04759
G1 X103.826 Y108.968 E0.04802
G1 X103.013 Y109.273 E0.04717
G1 X102.176 Y109.504 E0.04717
G1 X101.314 Y109.661 E0.04759
G1 X100.434 Y109.740 E0.04801
G1 X99.566 Y109.740 E0.04717
G1 X98.693 Y109.662 E0.04759
G1 X97.832 Y109.506 E0.04759
G1 X96.987 Y109.273 E0.04759
G1 X96.513 Y109.095 E0.02751
G1 X96.395 Y108.778 F3600.000
G1 E-4.00000 F1800.00000
G1 X97.609 Y107.040 F3600.000
G1 E4.00000 F1800.00000
G1 X92.953 Y102.383 E0.54771 F150.000
G1 X92.612 Y101.100 E0.11043
G1 X98.895 Y107.383 E0.73903
G1 X99.944 Y107.488 E0.08767
G1 X92.513 Y100.057 E0.87406
G1 X92.542 Y99.143 E0.07604
